X:386
T:Johnny Doherty's
R:jig
S:Marco Pollier and Kevin Ryan
Z:id:hn-jig-386
M:6/8
L:1/8
K:D
FAA ABc | dcd cBA | FAA BAG | cBc A2G |
FAA ABc | dcd cBA | ~g3 bag |1 edc d3 :|2 edc d2g ||
|: fed efg | afd cBA | FAA BAG | cBc A2g |
fed efg | afd cBA | ~g3 bag |1 edc d2g :|2 edc d3 ||

